X: 1
T: Lottis Schottis
C: Benny Andersson
R: shottish
Z: 2015 John Chambers <jc:trillian.mit.edu>
F: http://www.spillefolk.dk/nodesamling/visnode.php?key=sc-lottis
M: C
L: 1/16
K: G
GB |:\
"G"d2d2 cBAG | g2g2 g2GB | d2d2 dBGB | d2d2 "Am"cBAG |\
"D7"FGAB cded | f2f2 f2Ac | e2e2 e2d2 | "G"d8 |
%
"G"d4 cBAG | g2g2 g2GB | d2d2 "C"e2e2 | "Em"B2cd "Am"cBAG |\
"D7"FGAB cded | f2f2 f3f | gfed e2f2 | "G"g4 |]
%
"C"g2g2 gffe | eddc c2d2 | "Am"e2e2 ecAB | c4 cBBA |\
"D7"FGAB cded | f2f2 f2Ac | "C"e2e2 "D7"e2d2 | "G"d8 |
%
"C"g4 gffe | eddc c2d2 | "Am"e2e2 ecAB | c4 cBAG |\
"D7"FGAB cded | f2f2 f3f |[1 gfed efga |[M:3/4] bagf "G"g6 GB :|
[2\
"D"gfed efga bagf |[M:2/4] "C"g4 gffe | eddc c2d2 | "Am"e2e2 ecAB |\
"Am"c4 cBAG | "D"FGAB cded | f2f2 f3f | gfed efga | bagf "G"g4 |]
